X:399
T: Auf ewig getreu (123), S. 282
N: T0288
O: Luxemburg
S: Singendes Volk, Esch-Alzette 1937 posth.]
N: Straen, fff Witry, 6.12.1932
R: Liebeslieder]
M: 4/4
L: 1/8
K: G
G2 | G2G2G2G2 | G2B2B2
AG | D2B2B2B2 | B2e2d2
G2 | G2e2e2ee | e2dcB2
de | d3cc2dc | B2z4
G2 | G2e2e2ee | e2dcB2
de | d3cc2dc | B2z4

@@@ Tune index: 8453
